trunk/icons/sidebar-online.svg

<?xml version="1.0" encoding="UTF-8" standalone="no"?>
<svg
   xmlns:dc="http://purl.org/dc/elements/1.1/"
   xmlns:cc="http://creativecommons.org/ns#"
   xmlns:rdf="http://www.w3.org/1999/02/22-rdf-syntax-ns#"
   xmlns:svg="http://www.w3.org/2000/svg"
   xmlns="http://www.w3.org/2000/svg"
   xmlns:sodipodi="http://sodipodi.sourceforge.net/DTD/sodipodi-0.dtd"
   xmlns:inkscape="http://www.inkscape.org/namespaces/inkscape"
   fill="#000"
   viewBox="0 0 512 512"
   id="svg2"
   version="1.1"
   inkscape:version="0.48.4 r9939"
   width="100%"
   height="100%"
   sodipodi:docname="sidebar-online.svg">
  <metadata
     id="metadata10">
    <rdf:RDF>
      <cc:Work
         rdf:about="">
        <dc:format>image/svg+xml</dc:format>
        <dc:type
           rdf:resource="http://purl.org/dc/dcmitype/StillImage" />
      </cc:Work>
    </rdf:RDF>
  </metadata>
  <defs
     id="defs8" />
  <sodipodi:namedview
     pagecolor="#ffffff"
     bordercolor="#666666"
     borderopacity="1"
     objecttolerance="10"
     gridtolerance="10"
     guidetolerance="10"
     inkscape:pageopacity="0"
     inkscape:pageshadow="2"
     inkscape:window-width="902"
     inkscape:window-height="608"
     id="namedview6"
     showgrid="false"
     inkscape:zoom="0.921875"
     inkscape:cx="344.89193"
     inkscape:cy="322.03402"
     inkscape:window-x="49"
     inkscape:window-y="24"
     inkscape:window-maximized="0"
     inkscape:current-layer="svg2" />
  <path
     d="M 256.27119,-0.54237293 C 114.73688,-0.54237293 0,114.19451 0,255.72881 0,397.26312 114.73688,512 256.27119,512 397.80549,512 512.54237,397.26419 512.54237,255.72881 512.54237,114.19344 397.80656,-0.54237293 256.27119,-0.54237293 z M 401.27263,341.15255 c 4.58085,-21.59833 7.47244,-44.52285 8.41317,-68.33899 h 68.0432 c -1.78109,23.59617 -7.27384,46.51002 -16.38,68.33899 H 401.27263 z M 111.26974,170.30508 c -4.58084,21.59832 -7.47244,44.52285 -8.41317,68.33899 H 34.814441 c 1.781085,-23.59511 7.272762,-46.51002 16.378932,-68.33899 h 60.076367 z m 255.00371,0 c 5.13291,21.86955 8.22097,44.76951 9.22577,68.33899 H 273.35593 v -68.33899 h 92.91752 z M 273.35593,136.13559 V 36.116153 c 7.78957,2.266931 15.50655,6.070424 23.07936,11.409407 14.19208,10.005254 27.76911,25.41783 39.26287,44.573034 7.94549,13.241746 14.81675,27.984806 20.55296,44.038066 H 273.35593 z M 176.84421,92.097525 c 11.49376,-19.155203 25.06972,-34.568847 39.26288,-44.573034 7.57174,-5.338983 15.28978,-9.142474 23.07935,-11.409407 V 136.13559 h -82.89519 c 5.73728,-16.05219 12.60855,-30.79525 20.55296,-44.038065 z m 62.34223,78.207555 v 68.33899 H 137.04422 c 1.00373,-23.56948 4.09287,-46.46944 9.2247,-68.33899 h 92.91752 z M 51.194441,341.15255 C 42.088271,319.32358 36.596593,296.40973 34.815508,272.81356 h 68.042142 c 0.94072,23.81614 3.83232,46.74066 8.41317,68.33899 H 51.194441 z m 85.849779,-68.33899 h 102.14222 v 68.33899 h -92.91752 c -5.13183,-21.86848 -8.22097,-44.76951 -9.2247,-68.33899 z m 102.14222,102.50847 v 100.02052 c -7.78851,-2.26694 -15.50654,-6.0715 -23.07935,-11.40942 -14.19316,-10.00525 -27.77019,-25.41889 -39.26288,-44.57303 -7.94548,-13.24281 -14.81568,-27.98588 -20.55402,-44.03807 h 82.89625 z m 96.51172,44.03807 c -11.49376,19.15414 -25.07079,34.56778 -39.26287,44.57303 -7.57281,5.33792 -15.28979,9.14248 -23.07936,11.40942 V 375.32203 h 82.89626 c -5.73728,16.05219 -12.60854,30.79526 -20.55403,44.03807 z m -62.34223,-78.20755 v -68.33899 h 102.14222 c -1.00373,23.56948 -4.09286,46.47051 -9.22576,68.33899 H 273.35593 z M 409.6858,238.64407 c -0.94073,-23.81614 -3.83232,-46.74067 -8.41317,-68.33899 H 461.349 c 9.10616,21.82897 14.59891,44.74388 16.38,68.33899 h -68.0432 z m 33.8011,-102.50848 h -51.20085 c -9.9508,-31.37293 -23.69227,-58.885776 -40.21109,-80.84715 22.7099,10.859492 43.27674,25.422102 61.24562,43.390985 11.46813,11.467065 21.5492,23.992325 30.16632,37.456165 z M 99.221796,98.679425 C 117.19175,80.709475 137.75858,66.147932 160.46741,55.28844 143.94752,77.249814 130.20819,104.76266 120.25632,136.13559 H 69.056543 c 8.61605,-13.46384 18.698186,-25.9891 30.165253,-37.456165 z M 69.056543,375.32203 h 51.199777 c 9.95187,31.37293 23.69228,58.88578 40.21215,80.84822 C 137.75858,445.31077 117.19175,430.74816 99.222864,412.7782 87.754729,401.31114 77.672593,388.78588 69.056543,375.32203 z M 413.32058,412.7782 c -17.96888,17.96996 -38.53678,32.53257 -61.24562,43.39205 16.51989,-21.96136 30.26029,-49.47529 40.21109,-80.84822 h 51.20085 c -8.61712,13.46385 -18.69819,25.98911 -30.16632,37.45617 z"
     id="path4"
     inkscape:connector-curvature="0" />
</svg>

<svg fill="#4c4c4c" viewBox="0 0 512 512" xmlns="http://www.w3.org/2000/svg">
<path d="m256.2712-.5424c-141.5343,0-256.2712,114.7369-256.2712,256.2712s114.7369,256.2712 256.2712,256.2712 256.2712-114.7358 256.2712-256.2712-114.7358-256.2712-256.2712-256.2712zm145.0014,341.6949c4.5808-21.5983 7.4724-44.5228 8.4132-68.339h68.0432c-1.7811,23.5962-7.2738,46.51-16.38,68.339h-60.0764zm-290.0029-170.8475c-4.5808,21.5983-7.4724,44.5228-8.4132,68.339h-68.0421c1.7811-23.5951 7.2728-46.51 16.3789-68.339h60.0764zm255.0037,0c5.1329,21.8696 8.221,44.7695 9.2258,68.339h-102.1433v-68.339h92.9175zm-92.9175-34.1695v-100.0194c7.7896,2.2669 15.5066,6.0704 23.0794,11.4094 14.1921,10.0053 27.7691,25.4178 39.2629,44.573 7.9455,13.2417 14.8168,27.9848 20.553,44.0381h-82.8952zm-96.5117-44.0381c11.4938-19.1552 25.0697-34.5688 39.2629-44.573 7.5717-5.339 15.2898-9.1425 23.0794-11.4094v100.0205h-82.8952c5.7373-16.0522 12.6085-30.7952 20.553-44.0381zm62.3422,78.2076v68.339h-102.1422c1.0037-23.5695 4.0929-46.4694 9.2247-68.339h92.9175zm-187.992,170.8475c-9.1062-21.829-14.5978-44.7428-16.3789-68.339h68.0421c.9407,23.8161 3.8323,46.7407 8.4132,68.339h-60.0764zm85.8498-68.339h102.1422v68.339h-92.9175c-5.1318-21.8685-8.221-44.7695-9.2247-68.339zm102.1422,102.5085v100.0205c-7.7885-2.2669-15.5065-6.0715-23.0794-11.4094-14.1932-10.0053-27.7702-25.4189-39.2629-44.573-7.9455-13.2428-14.8157-27.9859-20.554-44.0381h82.8962zm96.5117,44.0381c-11.4938,19.1541-25.0708,34.5678-39.2629,44.573-7.5728,5.3379-15.2898,9.1425-23.0794,11.4094v-100.0205h82.8963c-5.7373,16.0522-12.6085,30.7953-20.554,44.0381zm-62.3422-78.2075v-68.339h102.1422c-1.0037,23.5695-4.0929,46.4705-9.2258,68.339h-92.9165zm136.3299-102.5085c-.9407-23.8161-3.8323-46.7407-8.4132-68.339h60.0764c9.1062,21.829 14.5989,44.7439 16.38,68.339h-68.0432zm33.8011-102.5085h-51.2009c-9.9508-31.3729-23.6923-58.8858-40.2111-80.8471 22.7099,10.8595 43.2767,25.4221 61.2456,43.391 11.4681,11.4671 21.5492,23.9923 30.1663,37.4562zm-344.2651-37.4562c17.97-17.9699 38.5368-32.5315 61.2456-43.391-16.5199,21.9614-30.2592,49.4742-40.2111,80.8471h-51.1998c8.616-13.4638 18.6982-25.9891 30.1653-37.4562zm-30.1653,276.6426h51.1998c9.9519,31.3729 23.6923,58.8858 40.2122,80.8482-22.7099-10.8595-43.2767-25.4221-61.2456-43.392-11.4681-11.4671-21.5503-23.9923-30.1663-37.4562zm344.264,37.4562c-17.9689,17.97-38.5368,32.5326-61.2456,43.392 16.5199-21.9614 30.2603-49.4753 40.2111-80.8482h51.2009c-8.6171,13.4639-18.6982,25.9891-30.1663,37.4562z"/>
</svg>
